Sweet-Rainbow/icons/playonlinux.svg

<?xml version="1.0" encoding="UTF-8" standalone="no"?>
<!-- Generator: Gravit.io -->

<svg
   xmlns:dc="http://purl.org/dc/elements/1.1/"
   xmlns:cc="http://creativecommons.org/ns#"
   xmlns:rdf="http://www.w3.org/1999/02/22-rdf-syntax-ns#"
   xmlns:svg="http://www.w3.org/2000/svg"
   xmlns="http://www.w3.org/2000/svg"
   xmlns:sodipodi="http://sodipodi.sourceforge.net/DTD/sodipodi-0.dtd"
   xmlns:inkscape="http://www.inkscape.org/namespaces/inkscape"
   style="isolation:isolate"
   viewBox="0 0 36 36"
   width="48"
   height="48"
   version="1.1"
   id="svg32"
   sodipodi:docname="playonlinux.svg"
   inkscape:version="0.92.4 (5da689c313, 2019-01-14)">
  <metadata
     id="metadata38">
    <rdf:RDF>
      <cc:Work
         rdf:about="">
        <dc:format>image/svg+xml</dc:format>
        <dc:type
           rdf:resource="http://purl.org/dc/dcmitype/StillImage" />
        <dc:title></dc:title>
      </cc:Work>
    </rdf:RDF>
  </metadata>
  <defs
     id="defs36" />
  <sodipodi:namedview
     pagecolor="#ffffff"
     bordercolor="#666666"
     borderopacity="1"
     objecttolerance="10"
     gridtolerance="10"
     guidetolerance="10"
     inkscape:pageopacity="0"
     inkscape:pageshadow="2"
     inkscape:window-width="640"
     inkscape:window-height="480"
     id="namedview34"
     showgrid="false"
     inkscape:zoom="29.365243"
     inkscape:cx="25.325443"
     inkscape:cy="32"
     inkscape:current-layer="svg32"
     units="px" />
  <linearGradient
     id="_lgradient_10"
     x1="0"
     y1="0.5"
     x2="1"
     y2="0.5"
     gradientTransform="matrix(24.984,0,0,23.97,22.017,19.69)"
     gradientUnits="userSpaceOnUse">
    <stop
       offset="0%"
       stop-opacity="1"
       style="stop-color:rgb(247,242,6)"
       id="stop2" />
    <stop
       offset="97.82608695652173%"
       stop-opacity="1"
       style="stop-color:rgb(255,187,36)"
       id="stop4" />
  </linearGradient>
  <linearGradient
     id="_lgradient_11"
     x1="0"
     y1="0.5"
     x2="1"
     y2="0.5"
     gradientTransform="matrix(23.721,0,0,24.71,19.649,1.12)"
     gradientUnits="userSpaceOnUse">
    <stop
       offset="0%"
       stop-opacity="1"
       style="stop-color:rgb(255,229,59)"
       id="stop9" />
    <stop
       offset="98.69565217391305%"
       stop-opacity="1"
       style="stop-color:rgb(255,0,91)"
       id="stop11" />
  </linearGradient>
  <linearGradient
     id="_lgradient_12"
     x1="0.39980158"
     y1="0.20242152"
     x2="0.36506835"
     y2="1.1185315"
     gradientTransform="matrix(24.77,0,0,23.991,1,4.79)"
     gradientUnits="userSpaceOnUse">
    <stop
       offset="0%"
       stop-opacity="1"
       style="stop-color:rgb(67,233,123)"
       id="stop16" />
    <stop
       offset="97.82608695652173%"
       stop-opacity="1"
       style="stop-color:rgb(56,249,215)"
       id="stop18" />
  </linearGradient>
  <linearGradient
     id="_lgradient_13"
     x1="0"
     y1="0.5"
     x2="1"
     y2="0.5"
     gradientTransform="matrix(23.821,0,0,24.58,4.74,22.3)"
     gradientUnits="userSpaceOnUse">
    <stop
       offset="0%"
       stop-opacity="1"
       style="stop-color:rgb(84,51,255)"
       id="stop23" />
    <stop
       offset="51.73913043478261%"
       stop-opacity="1"
       style="stop-color:rgb(32,189,255)"
       id="stop25" />
    <stop
       offset="98.26086956521739%"
       stop-opacity="1"
       style="stop-color:rgb(165,254,203)"
       id="stop27" />
  </linearGradient>
  <g
     id="g849"
     transform="matrix(0.78260413,0,0,0.78260413,-0.78250288,-0.78254974)">
    <path
       id="path7"
       d="m 26.024,25.847 c 6.883,-3.785 20.407,-2.769 16.17,4.57 -1.119,1.934 -2.294,2.686 -3.392,2.812 0.438,1.015 0.373,2.409 -0.742,4.343 -3.813,6.61 -11.875,-3.866 -12.042,-11.725 M 24.14,22.32 c 1.7,-0.91 4.98,0.41 6.86,0 1.86,-0.43 2.29,-2.62 4.2,-2.63 1.23,0 2.46,0.1 3.67,0.31 1.2,0.2 2.37,0.56 3.47,1.07 1.23,0.56 2.32,1.4 3.17,2.45 0.97,1.24 1.5,2.78 1.49,4.36 -0.01,0.81 -0.14,1.62 -0.39,2.4 -0.23,0.73 -0.54,1.44 -0.93,2.1 -0.67,1.23 -1.57,2.32 -2.65,3.21 -0.02,0.02 -0.04,0.03 -0.06,0.05 -0.07,0.5 -0.19,1 -0.34,1.48 -0.28,0.85 -0.64,1.66 -1.09,2.42 -0.64,1.16 -1.53,2.16 -2.62,2.92 -1.15,0.79 -2.52,1.21 -3.92,1.2 -1.08,-0.01 -2.15,-0.25 -3.14,-0.69 -0.87,-0.39 -1.69,-0.9 -2.43,-1.51 -0.72,-0.59 -1.39,-1.24 -2,-1.95 -0.62,-0.73 -1.19,-1.49 -1.71,-2.3 -1.07,-1.65 1.85,-6.08 1.22,-7.95 -0.899,-4.213 -5.059,-3.563 -4.92,-3.27 m 20.95,9.65"
       style="fill:url(#_lgradient_10);fill-rule:evenodd"
       inkscape:connector-curvature="0" />
    <path
       id="path14"
       d="M 25.551,21.865 C 25.386,21.564 25.449,21.215 25.302,20.891 22.146,13.908 23.365,1.93 30.266,5.914 c 1.904,1.102 2.643,2.258 2.768,3.339 0.998,-0.431 2.371,-0.367 4.275,0.731 6.285,3.625 -3.127,11.154 -10.746,11.807 -0.266,0.023 -0.531,0.038 -0.793,0.043 m -3.83,1.746 c -0.22,-0.45 0.16,-2.74 0.08,-3.24 -0.6,-1.42 0.59,-1.09 0.3,-2.61 -0.33,-1.62 -2.67,-3.27 -2.67,-4.93 -0.01,-1.22 0.1,-2.43 0.31,-3.63 0.19,-1.18 0.55,-2.33 1.05,-3.42 0.55,-1.23 1.39,-2.3 2.43,-3.15 1.23,-0.96 2.76,-1.48 4.33,-1.48 0.8,0.01 1.61,0.14 2.38,0.38 0.72,0.24 1.42,0.55 2.08,0.93 1.22,0.67 2.29,1.55 3.18,2.62 0.01,0.02 0.02,0.03 0.03,0.04 0.49,0.07 0.98,0.19 1.45,0.34 0.83,0.27 1.63,0.63 2.39,1.07 1.15,0.63 2.14,1.52 2.89,2.6 0.78,1.15 1.2,2.5 1.2,3.89 -0.01,1.03 -0.23,2.05 -0.64,3 -0.36,0.84 -0.84,1.63 -1.41,2.35 -1.12,1.4 -2.45,2.61 -3.94,3.58 -1.53,1.04 -3.18,1.89 -4.91,2.54 -1.77,0.69 -3.63,1.13 -5.53,1.31 -0.05,0.01 -0.11,0.01 -0.16,0.02 l -0.79,0.04 M 22.48,21 21.65,22.51 C 21.59,22.39 22.49,21.16 22.48,21 Z M 35.44,5.09"
       style="fill:url(#_lgradient_11);fill-rule:evenodd"
       inkscape:connector-curvature="0" />
    <path
       id="path21"
       d="M 21.771,22.823 C 14.918,26.589 1.883,24.854 5.68,18.281 6.792,16.359 7.961,15.609 9.053,15.482 8.616,14.473 8.679,13.087 9.789,11.16 c 4.215,-7.3 11.817,3.845 11.979,11.659 m 1.892,3.531 c -0.97,-0.37 -3.118,-1.646 -5.528,-0.056 -1.73,0.38 -3.052,2.486 -4.822,2.486 -1.3,0.01 -2.59,-0.1 -3.86,-0.33 C 8.21,28.24 7.01,27.87 5.86,27.35 4.61,26.8 3.5,25.97 2.62,24.93 1.56,23.67 0.99,22.07 1,20.42 1.04,18.96 1.46,17.53 2.22,16.27 2.89,15.07 3.77,14 4.83,13.12 4.85,13.11 4.87,13.09 4.88,13.08 4.96,12.58 5.07,12.08 5.23,11.6 5.5,10.76 5.86,9.96 6.3,9.19 6.97,7.98 7.89,6.93 9,6.11 c 1.19,-0.86 2.63,-1.32 4.1,-1.32 1.11,0.01 2.21,0.26 3.21,0.73 0.88,0.42 1.7,0.95 2.43,1.59 0.71,0.62 1.36,1.3 1.95,2.03 0.59,0.75 1.14,1.53 1.63,2.35 1.01,1.69 1.82,3.49 2.41,5.36 0.62,1.89 0.97,3.85 1.04,5.83 M 4.88,13.08"
       style="fill:url(#_lgradient_12);fill-rule:evenodd"
       inkscape:connector-curvature="0" />
    <path
       id="path30"
       d="m 22.624,26.294 c 3.723,6.777 2.008,19.668 -4.492,15.912 -1.901,-1.1 -2.643,-2.255 -2.768,-3.335 -0.998,0.432 -2.369,0.368 -4.274,-0.728 C 3.871,33.975 14.893,26.457 22.619,26.296 M 26.15,24.41 c 0.85,1.58 1.47,3.27 1.84,5.03 0.38,1.71 0.57,3.47 0.57,5.22 0.01,1.28 -0.1,2.56 -0.33,3.82 -0.21,1.23 -0.57,2.43 -1.09,3.56 -0.55,1.24 -1.37,2.35 -2.4,3.23 -1.26,1.05 -2.85,1.62 -4.49,1.61 -1.46,-0.04 -2.88,-0.46 -4.13,-1.21 -1.19,-0.66 -2.25,-1.54 -3.13,-2.6 C 12.98,43.06 12.97,43.05 12.96,43.03 12.47,42.96 11.98,42.85 11.51,42.7 10.68,42.43 9.88,42.07 9.12,41.63 7.92,40.97 6.87,40.05 6.06,38.95 5.21,37.76 4.74,36.33 4.74,34.87 4.75,33.76 5,32.67 5.48,31.67 5.89,30.8 6.42,29.99 7.05,29.26 c 0.61,-0.7 1.29,-1.35 2.01,-1.93 0.74,-0.59 1.52,-1.13 2.34,-1.61 1.67,-1 3.45,-1.81 5.31,-2.39 1.86,-0.62 3.81,-0.97 5.77,-1.03 m -9.52,20.73"
       style="fill:url(#_lgradient_13);fill-rule:evenodd"
       inkscape:connector-curvature="0" />
  </g>
</svg>

<?xml version="1.0" encoding="UTF-8" standalone="no"?><!-- Generator: Gravit.io --><svg xmlns="http://www.w3.org/2000/svg" xmlns:xlink="http://www.w3.org/1999/xlink" style="isolation:isolate" viewBox="0 0 48 48" width="48pt" height="48pt"><linearGradient id="_lgradient_10" x1="0" y1="0.5" x2="1" y2="0.5" gradientTransform="matrix(24.984,0,0,23.97,22.017,19.69)" gradientUnits="userSpaceOnUse"><stop offset="0%" stop-opacity="1" style="stop-color:rgb(247,242,6)"/><stop offset="97.82608695652173%" stop-opacity="1" style="stop-color:rgb(255,187,36)"/></linearGradient><path d=" M 26.024 25.847 C 32.907 22.062 46.431 23.078 42.194 30.417 C 41.075 32.351 39.9 33.103 38.802 33.229 C 39.24 34.244 39.175 35.638 38.06 37.572 C 34.247 44.182 26.185 33.706 26.018 25.847 M 24.14 22.32 C 25.84 21.41 29.12 22.73 31 22.32 C 32.86 21.89 33.29 19.7 35.2 19.69 C 36.43 19.69 37.66 19.79 38.87 20 C 40.07 20.2 41.24 20.56 42.34 21.07 C 43.57 21.63 44.66 22.47 45.51 23.52 C 46.48 24.76 47.01 26.3 47 27.88 C 46.99 28.69 46.86 29.5 46.61 30.28 C 46.38 31.01 46.07 31.72 45.68 32.38 C 45.01 33.61 44.11 34.7 43.03 35.59 C 43.01 35.61 42.99 35.62 42.97 35.64 C 42.9 36.14 42.78 36.64 42.63 37.12 C 42.35 37.97 41.99 38.78 41.54 39.54 C 40.9 40.7 40.01 41.7 38.92 42.46 C 37.77 43.25 36.4 43.67 35 43.66 C 33.92 43.65 32.85 43.41 31.86 42.97 C 30.99 42.58 30.17 42.07 29.43 41.46 C 28.71 40.87 28.04 40.22 27.43 39.51 C 26.81 38.78 26.24 38.02 25.72 37.21 C 24.65 35.56 27.57 31.13 26.94 29.26 C 26.041 25.047 21.881 25.697 22.02 25.99 M 42.97 35.64" fill-rule="evenodd" fill="url(#_lgradient_10)"/><linearGradient id="_lgradient_11" x1="0" y1="0.5" x2="1" y2="0.5" gradientTransform="matrix(23.721,0,0,24.71,19.649,1.12)" gradientUnits="userSpaceOnUse"><stop offset="0%" stop-opacity="1" style="stop-color:rgb(255,229,59)"/><stop offset="98.69565217391305%" stop-opacity="1" style="stop-color:rgb(255,0,91)"/></linearGradient><path d=" M 25.551 21.865 C 25.386 21.564 25.449 21.215 25.302 20.891 C 22.146 13.908 23.365 1.93 30.266 5.914 C 32.17 7.016 32.909 8.172 33.034 9.253 C 34.032 8.822 35.405 8.886 37.309 9.984 C 43.594 13.609 34.182 21.138 26.563 21.791 C 26.297 21.814 26.032 21.829 25.77 21.834 M 21.94 23.58 C 21.72 23.13 22.1 20.84 22.02 20.34 C 21.42 18.92 22.61 19.25 22.32 17.73 C 21.99 16.11 19.65 14.46 19.65 12.8 C 19.64 11.58 19.75 10.37 19.96 9.17 C 20.15 7.99 20.51 6.84 21.01 5.75 C 21.56 4.52 22.4 3.45 23.44 2.6 C 24.67 1.64 26.2 1.12 27.77 1.12 C 28.57 1.13 29.38 1.26 30.15 1.5 C 30.87 1.74 31.57 2.05 32.23 2.43 C 33.45 3.1 34.52 3.98 35.41 5.05 C 35.42 5.07 35.43 5.08 35.44 5.09 C 35.93 5.16 36.42 5.28 36.89 5.43 C 37.72 5.7 38.52 6.06 39.28 6.5 C 40.43 7.13 41.42 8.02 42.17 9.1 C 42.95 10.25 43.37 11.6 43.37 12.99 C 43.36 14.02 43.14 15.04 42.73 15.99 C 42.37 16.83 41.89 17.62 41.32 18.34 C 40.2 19.74 38.87 20.95 37.38 21.92 C 35.85 22.96 34.2 23.81 32.47 24.46 C 30.7 25.15 28.84 25.59 26.94 25.77 C 26.89 25.78 26.83 25.78 26.78 25.79 L 25.99 25.83 M 22.48 21 L 21.65 22.51 C 21.59 22.39 22.49 21.16 22.48 21 Z  M 35.44 5.09" fill-rule="evenodd" fill="url(#_lgradient_11)"/><linearGradient id="_lgradient_12" x1="0.39980158730156745" y1="0.20242151662881497" x2="0.36506834215163786" y2="1.11853149718325" gradientTransform="matrix(24.77,0,0,23.991,1,4.79)" gradientUnits="userSpaceOnUse"><stop offset="0%" stop-opacity="1" style="stop-color:rgb(67,233,123)"/><stop offset="97.82608695652173%" stop-opacity="1" style="stop-color:rgb(56,249,215)"/></linearGradient><path d=" M 21.771 22.823 C 14.918 26.589 1.883 24.854 5.68 18.281 C 6.792 16.359 7.961 15.609 9.053 15.482 C 8.616 14.473 8.679 13.087 9.789 11.16 C 14.004 3.86 21.606 15.005 21.768 22.819 M 23.66 26.35 C 22.69 25.98 20.542 24.704 18.132 26.294 C 16.402 26.674 15.08 28.78 13.31 28.78 C 12.01 28.79 10.72 28.68 9.45 28.45 C 8.21 28.24 7.01 27.87 5.86 27.35 C 4.61 26.8 3.5 25.97 2.62 24.93 C 1.56 23.67 0.99 22.07 1 20.42 C 1.04 18.96 1.46 17.53 2.22 16.27 C 2.89 15.07 3.77 14 4.83 13.12 C 4.85 13.11 4.87 13.09 4.88 13.08 C 4.96 12.58 5.07 12.08 5.23 11.6 C 5.5 10.76 5.86 9.96 6.3 9.19 C 6.97 7.98 7.89 6.93 9 6.11 C 10.19 5.25 11.63 4.79 13.1 4.79 C 14.21 4.8 15.31 5.05 16.31 5.52 C 17.19 5.94 18.01 6.47 18.74 7.11 C 19.45 7.73 20.1 8.41 20.69 9.14 C 21.28 9.89 21.83 10.67 22.32 11.49 C 23.33 13.18 24.14 14.98 24.73 16.85 C 25.35 18.74 25.7 20.7 25.77 22.68 M 4.88 13.08" fill-rule="evenodd" fill="url(#_lgradient_12)"/><linearGradient id="_lgradient_13" x1="0" y1="0.5" x2="1" y2="0.5" gradientTransform="matrix(23.821,0,0,24.58,4.74,22.3)" gradientUnits="userSpaceOnUse"><stop offset="0%" stop-opacity="1" style="stop-color:rgb(84,51,255)"/><stop offset="51.73913043478261%" stop-opacity="1" style="stop-color:rgb(32,189,255)"/><stop offset="98.26086956521739%" stop-opacity="1" style="stop-color:rgb(165,254,203)"/></linearGradient><path d=" M 22.624 26.294 C 26.347 33.071 24.632 45.962 18.132 42.206 C 16.231 41.106 15.489 39.951 15.364 38.871 C 14.366 39.303 12.995 39.239 11.09 38.143 C 3.871 33.975 14.893 26.457 22.619 26.296 M 26.15 24.41 C 27 25.99 27.62 27.68 27.99 29.44 C 28.37 31.15 28.56 32.91 28.56 34.66 C 28.57 35.94 28.46 37.22 28.23 38.48 C 28.02 39.71 27.66 40.91 27.14 42.04 C 26.59 43.28 25.77 44.39 24.74 45.27 C 23.48 46.32 21.89 46.89 20.25 46.88 C 18.79 46.84 17.37 46.42 16.12 45.67 C 14.93 45.01 13.87 44.13 12.99 43.07 C 12.98 43.06 12.97 43.05 12.96 43.03 C 12.47 42.96 11.98 42.85 11.51 42.7 C 10.68 42.43 9.88 42.07 9.12 41.63 C 7.92 40.97 6.87 40.05 6.06 38.95 C 5.21 37.76 4.74 36.33 4.74 34.87 C 4.75 33.76 5 32.67 5.48 31.67 C 5.89 30.8 6.42 29.99 7.05 29.26 C 7.66 28.56 8.34 27.91 9.06 27.33 C 9.8 26.74 10.58 26.2 11.4 25.72 C 13.07 24.72 14.85 23.91 16.71 23.33 C 18.57 22.71 20.52 22.36 22.48 22.3 M 12.96 43.03" fill-rule="evenodd" fill="url(#_lgradient_13)"/></svg>
